/*________________________________________________________________________

Quadro - plataforma para el conocimiento descentralizado

SuperCollider: curso intermedio
por Darien Brito
https://www.patreon.com/darienbrito

1. Estructuras de Control 2 (switch)
__________________________________________________________________________*/

(
switch(1)
{1} { "el número es 1".postln }
{2} { "el número es 2".postln }
{3} { "el número es 3".postln }
{3} { "el número es 3".postln }

)